!!!OTL: Die verkaufte Muellerin Es wohnt ein Mueller an jenem Teich,
!!!ARE: Europa, Mitteleuropa, Deutschland (), Brandenburg
!!!YOR: 4, S. 344
!!    ????
!!!SCT: Q0086U
!!!YEM: Copyright 1995, estate of Helmut Schaffrath.
**kern
*ICvox
*Ivox
*M3/4
*k[f#]
*G:
{4dd
=1
8b
8dd
8g
8g
4dd
=2
8b
8dd
4g
8r}
{8g
=3
8ee
8ee
4gg
4ee
=4
8ee
8dd
4dd
8r}
{8dd
=5
8ee
8ee
4gg
4ee
=6
8ee
8dd
4dd
8r}
{8dd
=7
8ee
8ee
4gg
4ee
=8
8ee
8dd
4dd}
==
!!!AGN: Ballade, Menschenhandel, Rettung, Hinrichtung
!! Schlusspause korrigiert.
!!!ONB: ESAC (Essen Associative Code) Database: BALLADE
!!!AMT: simple triple
!!!AIN: vox
!!!EED: Helmut Schaffrath
!!!EEV: 1.0
*-
